.files/icons/devices/Bluetooth.svg

<svg fill="none" height="48" viewBox="0 0 48 48" width="48" xmlns="http://www.w3.org/2000/svg"><g clip-rule="evenodd" fill="#000" fill-rule="evenodd"><path d="m12.6621 17.4866 7.3379 6.6041v16.9093c0 1.5436 1.6744 2.5053 3.0077 1.7276l12-7c1.1706-.6829 1.3375-2.3076.3302-3.2142l-20-18c-.821-.7389-2.0856-.6723-2.8245.1487s-.6723 2.0856.1487 2.8245zm11.3379 20.0314v-9.8272l6.6251 5.9625z" opacity=".3"/><path d="m23.2 4.39997c-1.3184-.98886-3.2-.04809-3.2 1.6v18.27513l-7.2953 6.201c-.8416.7154-.9439 1.9776-.2286 2.8192.7154.8416 1.9776.9439 2.8192.2286l20-17.0001c.9775-.8308.931-2.3541-.0953-3.1238zm7.597 10.69773-6.797 5.7774v-10.87512z"/></g></svg>

<svg width="48" height="48" viewBox="0 0 48 48" fill="none" xmlns="http://www.w3.org/2000/svg">
<path opacity="0.3" fill-rule="evenodd" clip-rule="evenodd" d="M12.6621 17.4866L20 24.0907V41C20 42.5436 21.6744 43.5053 23.0077 42.7276L35.0077 35.7276C36.1783 35.0447 36.3452 33.42 35.3379 32.5134L15.3379 14.5134C14.5169 13.7745 13.2523 13.8411 12.5134 14.6621C11.7745 15.4831 11.8411 16.7477 12.6621 17.4866ZM24 37.518V27.6908L30.6251 33.6533L24 37.518Z" fill="black"/>
<path fill-rule="evenodd" clip-rule="evenodd" d="M23.2 4.39997C21.8816 3.41111 20 4.35188 20 5.99997V24.2751L12.7047 30.4761C11.8631 31.1915 11.7608 32.4537 12.4761 33.2953C13.1915 34.1369 14.4537 34.2392 15.2953 33.5239L35.2953 16.5238C36.2728 15.693 36.2263 14.1697 35.2 13.4L23.2 4.39997ZM30.797 15.0977L24 20.8751V9.99998L30.797 15.0977Z" fill="black"/>
</svg>
